32x32/mimetypes/text-x-gettext-translation.svg

<svg xmlns="http://www.w3.org/2000/svg" width="32" height="32" version="1.1">
 <path style="opacity:0.2" d="M 6.375,3 C 5.61325,3 5,3.6244 5,4.4 V 29.6 C 5,30.37504 5.61325,31 6.375,31 h 19.25 C 26.3862,31 27,30.37504 27,29.6 V 12 L 20,10 18,3 Z"/>
 <path style="fill:#f4f4f7" d="M 6.375,2 C 5.61325,2 5,2.6244 5,3.4 V 28.6 C 5,29.37504 5.61325,30 6.375,30 h 19.25 C 26.3862,30 27,29.37504 27,28.6 V 11 L 20,9 18,2 Z"/>
 <path style="opacity:0.2" d="M 27,12 18,3 v 7.59375 C 18,11.373375 18.62775,12 19.40625,12 Z"/>
 <path style="fill:#fafafa" d="M 27,11 18,2 V 9.59375 C 18,10.373375 18.62775,11 19.40625,11 Z"/>
 <path style="opacity:0.2;fill:#f4f4f7" d="M 6.375,2 C 5.61325,2 5,2.6247906 5,3.4003906 v 1 C 5,3.6247906 5.61325,3 6.375,3 H 18 V 2 Z"/>
 <path style="fill:#3173c9" d="M 11.6875 15 C 11.6875 15 10 15.012461 10 16.755859 L 10 22.257812 C 10 23.224006 10.764727 23.999501 11.714844 24 L 15.646484 24 L 17.765625 26 L 19.882812 24 L 20.285156 24 C 20.285156 24 22 24.001209 22 22.257812 L 22 16.755859 C 22 15.012463 20.285156 15 20.285156 15 L 11.6875 15 z M 12 17 L 20 17 L 20 18 L 12 18 L 12 17 z M 12 19 L 16 19 L 16 20 L 12 20 L 12 19 z M 12 21 L 19 21 L 19 22 L 12 22 L 12 21 z"/>
</svg>

<svg xmlns="http://www.w3.org/2000/svg" width="32" height="32"><path style="opacity:.2" d="M6.375 3C5.613 3 5 3.624 5 4.4v25.2c0 .775.613 1.4 1.375 1.4h19.25c.761 0 1.375-.625 1.375-1.4V12l-7-2-2-7z"/><path style="fill:#f4f4f7" d="M6.375 2C5.613 2 5 2.624 5 3.4v25.2c0 .775.613 1.4 1.375 1.4h19.25c.761 0 1.375-.625 1.375-1.4V11l-7-2-2-7z"/><path style="opacity:.2" d="m27 12-9-9v7.594c0 .78.628 1.406 1.406 1.406z"/><path style="fill:#fafafa" d="m27 11-9-9v7.594c0 .78.628 1.406 1.406 1.406z"/><path style="opacity:.2;fill:#f4f4f7" d="M6.375 2C5.613 2 5 2.625 5 3.4v1C5 3.625 5.613 3 6.375 3H18V2z"/><path style="fill:#3173c9" d="M11.688 15S10 15.012 10 16.756v5.502c0 .966.765 1.742 1.715 1.742h3.931l2.12 2 2.117-2h.402S22 24.001 22 22.258v-5.502C22 15.012 20.285 15 20.285 15h-8.598zM12 17h8v1h-8v-1zm0 2h4v1h-4v-1zm0 2h7v1h-7v-1z"/></svg>
